svgs/regular/square-arrow-up-right.svg

<svg xmlns="http://www.w3.org/2000/svg" viewBox="0 0 448 512"><!-- Font Awesome Pro 6.0.0-alpha2 by @fontawesome - https://fontawesome.com License - https://fontawesome.com/license (Commercial License) --><path d="M312 144H156.719C143.469 144 132.719 154.75 132.719 168S143.469 192 156.719 192H254.062L119.031 327.031C109.656 336.406 109.656 351.594 119.031 360.969C123.719 365.656 129.844 368 136 368S148.281 365.656 152.969 360.969L288 225.938V323.281C288 336.531 298.75 347.281 312 347.281S336 336.531 336 323.281V168C336 154.75 325.25 144 312 144ZM384 32H64C28.654 32 0 60.656 0 96V416C0 451.344 28.654 480 64 480H384C419.346 480 448 451.344 448 416V96C448 60.656 419.346 32 384 32ZM400 416C400 424.82 392.822 432 384 432H64C55.178 432 48 424.82 48 416V96C48 87.18 55.178 80 64 80H384C392.822 80 400 87.18 400 96V416Z"/></svg>

<svg xmlns="http://www.w3.org/2000/svg" viewBox="0 0 448 512"><!--! Font Awesome Pro 6.0.0-alpha3 by @fontawesome - https://fontawesome.com License - https://fontawesome.com/license (Commercial License) --><path d="M312 144H156.7c-13.25 0-24 10.75-24 24S143.5 192 156.7 192h97.34l-135 135c-9.375 9.375-9.375 24.56 0 33.94C123.7 365.7 129.8 368 136 368s12.28-2.344 16.97-7.031L288 225.9v97.34c0 13.25 10.75 24 24 24s24-10.75 24-24V168C336 154.8 325.3 144 312 144zM384 32H64C28.65 32 0 60.66 0 96v320c0 35.34 28.65 64 64 64h320c35.35 0 64-28.66 64-64V96C448 60.66 419.3 32 384 32zM400 416c0 8.82-7.178 16-16 16H64c-8.822 0-16-7.18-16-16V96c0-8.82 7.178-16 16-16h320c8.822 0 16 7.18 16 16V416z"/></svg>
